X:1
T:Are You Winning Souls?
T:Charles Hutchinson Gabriel
T:Are You Winning Souls?
T:Public Domain
T:Public Domain
T:Public Domain
C:Charles Hutchinson Gabriel
Z:Public Domain
%%score ( 1 2 ) ( 3 4 )
L:1/8
M:4/4
K:Eb
V:1 treble 
V:2 treble 
V:3 bass 
V:4 bass 
V:1
 [EG]>[EF] | E2 [Ee]2 [Ed]2 [Ec]2 | [GB]4 [EG]2 E>[EF] | [EG]2 [Ec]2 [EB]2 [EG]2 | %4
w: 1.~Are you|win- ning souls for|sus, As you tra-|on your way? Are|
w: 2.~Are you|win- ning souls for|sus, Do- ing all|you can do, Liv-|
w: 3.~Are you|win- ning souls for|sus? Does your life|am- ple prove Him|
w: 4.~Are you|win- ning souls for|sus, Pre- cious souls|whom He died? Are|
 [DF]6 [DG]>[DF] | E2 [Ee]2 [Ed]2 [Ac]2 | [GB]4 [Ac]2 [Ad][Ae] | [GB]2 [Ac]2 [EG]2 [DF]2 | E6 || %9
w: you tell- ing|His sal- va- tion|ery hour of ev-|ery day? * *||
w: ing out the|bless- èd Gos- pel|He hath com- mand-|ed you? Are you|win-|
w: to be the|pre- cious Sav- ior|cri- ficed be- cause|of love? * *||
w: you loy- al|to the Mas- ter,|for you was cru-|ci- fied? * *||
"^Refrain" [Ge]>[Gc] | [Ad]2 [Ad]2 [Ad]2 [FA][Ac] | [GB]2 [GB]2 [EG]2 [GB][GB] | %12
w: |||
w: souls, Are|you win- ning souls, Are|you win- ning souls for|
w: |||
w: |||
 [Ge]2 [EB]2 [DA]2 [EG]2 | [EG]4 [DF]2 E>[EF] | [EG]2 [GB]2 [GB]2 [EG][EG] | %15
w: |||
w: Je- sus? When your|work is done, Each|you have won Will shine|
w: |||
w: |||
 [EA]2 [Ac]2 [Ae]2 (dc) | [GB]2 [Ac]>[Ac] [EG]2 [DF]>[DF] | E6 |] %18
w: |||
w: as a star in *|crown! * * * * *||
w: |||
w: |||
V:2
 x2 | E2 x6 | x6 E3/2 x/ | x8 | x8 | E2 x6 | x8 | x8 | E6 || x2 | x8 | x8 | x8 | x6 E3/2 x/ | x8 | %15
w: |Je-|vel|||Ev-||||||||||
w: |Je-|that|||As|||ning|||||that||
w: |Je-|ex-|||Sa-||||||||||
w: |Je-|for|||Who||||||||||
 x6 A2 | x8 | E6 |] %18
w: |||
w: your|||
w: |||
w: |||
V:3
 [E,B,]>[E,A,] | [E,G,]2 [G,B,]2 (A,B,)(CD) | [E,E]4 [E,B,]2 [E,G,]>[E,A,] | %3
 [E,B,]2 [E,A,]2 [E,G,]2 [E,B,]2 | [B,,B,]6 [B,,B,]>[B,,A,] | [E,G,]2 [G,B,]2 (A,B,)(CD) | %6
 [E,E]4 [A,,E]2 [A,,E][A,,C] | [B,,E]2 [B,,E]2 [B,,B,]2 [B,,A,]2 | [E,G,]6 || [E,B,]>[E,B,] | %10
 [F,B,]2 [F,B,]2 [B,F]2 [B,,D][B,,D] | [E,E]2 [E,E]2 [E,B,]2 [E,E][E,E] | %12
 [E,B,]2 [G,B,]2 [F,B,]2 [E,B,]2 | [B,,B,]4 [B,,B,]2 [E,G,]>[E,A,] | %14
 [E,B,]2 [E,E]2 [E,E]2 [E,_D][E,D] | [A,C]2 [A,E]2 [A,C]2 [A,,E]2 | %16
 [B,,E]2 [B,,E]>[B,,E] [B,,B,]2 [B,,A,]>[B,,A,] | [E,G,]6 |] %18
V:4
 x2 | x4 A,2 A,2 | x8 | x8 | x8 | x4 A,2 A,2 | x8 | x8 | x6 || x2 | x8 | x8 | x8 | x8 | x8 | x8 | %16
 x8 | x6 |] %18

